!!!COM: Vivaldi, Antonio
!!!CDT: 1678/03/04/-1741/07/27/
!!!OTL: Concerto in D Major, Op. 6, No. 4
!!!OMV: No. 2
!!!OMD: Adagio
**kern	**dynam	**kern	**dynam	**kern	**dynam	**kern	**dynam	**kern	**dynam
*staff5	*	*staff4	*	*staff3	*	*staff2	*	*staff1	*
*Icello	*	*Iviola	*	*Ivioln	*	*Ivioln	*	*Ivioln	*
*clefF4	*	*clefC3	*	*clefG2	*	*clefG2	*	*clefG2	*
*k[f#c#]	*	*k[f#c#]	*	*k[f#c#]	*	*k[f#c#]	*	*k[f#c#]	*
*met(c)	*	*met(c)	*	*met(c)	*	*met(c)	*	*met(c)	*
*M4/4	*	*M4/4	*	*M4/4	*	*M4/4	*	*M4/4	*
*MM72	*	*MM72	*	*MM72	*	*MM72	*	*MM72	*
=1-	=1-	=1-	=1-	=1-	=1-	=1-	=1-	=1-	=1-
8BB/L	p	8f#\L	p	8dd\L	p	8ff#\L	p	8ff#\L	p
8BB/	.	8f#\	.	8dd\	.	8ff#\	.	8ff#\	.
8BB/	.	8f#\	.	8dd\	.	8ff#\	.	8ff#\	.
8BB/J	.	8f#\J	.	8dd\J	.	8ff#\J	.	8ff#\J	.
8BB/L	.	8g#\L	.	8cc#\L	.	8ee#\L	.	8ee#\L	.
8BB/	.	8g#\	.	8cc#\	.	8ee#\	.	8ee#\	.
8BB/	.	8g#\	.	8cc#\	.	8ee#\	.	8ee#\	.
8BB/J	.	8g#\J	.	8cc#\J	.	8ee#\J	.	8ee#\J	.
=2	=2	=2	=2	=2	=2	=2	=2	=2	=2
8AA#/L	.	8f#\L	.	8cc#\L	.	8een\L	.	8een\L	.
8AA#/	.	8f#\	.	8cc#\	.	8ee\	.	8ee\	.
8AA#/	.	8f#\	.	8cc#\	.	8ee\	.	8ee\	.
8AA#/J	.	8f#\J	.	8cc#\J	.	8ee\J	.	8ee\J	.
8AAn/L	.	8f#\L	.	8b\L	.	8dd#\L	.	8dd#\L	.
8AA/	.	8f#\	.	8b\	.	8dd#\	.	8dd#\	.
8AA/	.	8f#\	.	8b\	.	8dd#\	.	8dd#\	.
8AA/J	.	8f#\J	.	8b\J	.	8dd#\J	.	8dd#\J	.
=3	=3	=3	=3	=3	=3	=3	=3	=3	=3
8GG/L	.	8g\L	.	8b\L	.	8ee\L	.	8ee\L	.
8GG/	.	8g\	.	8b\	.	8ee\	.	8ee\	.
8GG/	.	8g\	.	8b\	.	8ee\	.	8ee\	.
8GG/J	.	8g\J	.	8b\J	.	8ee\J	.	8ee\J	.
8GG#/L	.	8B/L	.	8b\L	.	8ee\L	.	8ee\L	.
8GG#/	.	8B/	.	8b\	.	8ee\	.	8ee\	.
8GG#/	.	8B/	.	8b\	.	8ee\	.	8ee\	.
8GG#/J	.	8B/J	.	8b\J	.	8ee\J	.	8ee\J	.
=4	=4	=4	=4	=4	=4	=4	=4	=4	=4
*^	*	*	*	*	*	*	*	*	*
4FF#/	8FF#\L	.	4c#\	.	4a#/	.	4ff#\	.	8ff#\L	mf
.	8FF#\	.	.	.	.	.	.	.	8aa#\J	.
4r	8AA#\	.	4r	.	4r	.	4r	.	16ccc#\LL	.
.	.	.	.	.	.	.	.	.	16aa#\	.
.	8AA#\J	.	.	.	.	.	.	.	16ccc#\	.
.	.	.	.	.	.	.	.	.	16ee\JJ	.
2r	8BB\L	.	2r	.	2r	.	2r	.	8dd\L	.
.	8BB\	.	.	.	.	.	.	.	8ff#\J	.
.	8d\	.	.	.	.	.	.	.	16bb\LL	.
.	.	.	.	.	.	.	.	.	16ff#\	.
.	8d\J	.	.	.	.	.	.	.	16bb\	.
.	.	.	.	.	.	.	.	.	16dd\JJ	.
*v	*v	*	*	*	*	*	*	*	*	*
=5	=5	=5	=5	=5	=5	=5	=5	=5	=5
8E\L	.	2r	.	2r	.	2r	.	8cc#\L	.
8E\	.	.	.	.	.	.	.	8ee\J	.
8E\	.	.	.	.	.	.	.	16gg\LL	.
.	.	.	.	.	.	.	.	16ee\	.
8E\J	.	.	.	.	.	.	.	16gg\	.
.	.	.	.	.	.	.	.	16b\JJ	.
8F#\L	.	8c#\L	.	8cc#\L	.	8aa#\L	.	8a#\L	.
8F#\	.	8c#\	.	8cc#\	.	8aa#\	.	8aa#\	.
8F#\	.	8c#\	.	8cc#\	.	8aa#\	.	8aa#\	.
8F#\J	.	8c#\J	.	8cc#\J	.	8aa#\J	.	8aa#\J	.
=6	=6	=6	=6	=6	=6	=6	=6	=6	=6
8E#\L	.	8g#\L	.	8dd\L	.	8bb\L	.	8bb\L	.
8E#\	.	8g#\	.	8dd\	.	8bb\	.	8bb\	.
8E#\	.	8g#\	.	8dd\	.	8bb\	.	8bb\	.
8E#\J	.	8g#\J	.	8dd\J	.	8bb\J	.	8bb\J	.
8F#\L	.	8a\L	.	8cc#\L	.	8aan\L	.	8aan\L	.
8F#\	.	8a\	.	8cc#\	.	8aa\	.	8aa\	.
8F#\	.	8a\	.	8cc#\	.	8aa\	.	8aa\	.
8F#\J	.	8a\J	.	8cc#\J	.	8aa\J	.	8aa\J	.
=7	=7	=7	=7	=7	=7	=7	=7	=7	=7
8BB#/L	.	8f#\L	.	8dd#\L	.	8aa\L	.	8aa\L	.
8BB#/	.	8f#\	.	8dd#\	.	8aa\	.	8aa\	.
8BB#/	.	8f#\	.	8dd#\	.	8aa\	.	8aa\	.
8BB#/J	.	8f#\J	.	8dd#\J	.	8aa\J	.	8aa\J	.
*^	*	*	*	*	*	*	*	*	*
8C#\L	4C#/	.	4g#\	.	4ee\	.	4gg#\	.	8.gg#\L	.
8C#\	.	.	.	.	.	.	.	.	.	.
.	.	.	.	.	.	.	.	.	16ccc#\Jk	.
8F#\	4r	.	4r	.	4r	.	4r	.	16aa\LL	.
.	.	.	.	.	.	.	.	.	16gg#\	.
8F#\J	.	.	.	.	.	.	.	.	16ff#\	.
.	.	.	.	.	.	.	.	.	16ee\JJ	.
*v	*v	*	*	*	*	*	*	*	*	*
=8	=8	=8	=8	=8	=8	=8	=8	=8	=8
8BB/L	.	2r	.	2r	.	2r	.	8dd\L	.
8BB/	.	.	.	.	.	.	.	8ddd\J	.
8D/	.	.	.	.	.	.	.	16bb\LL	.
.	.	.	.	.	.	.	.	16aa\	.
8D/J	.	.	.	.	.	.	.	16gg#\	.
.	.	.	.	.	.	.	.	16ff#\JJ	.
8C#/L	.	4r	.	4r	.	4r	.	8ee#\L	.
8FF#/	.	.	.	.	.	.	.	8ff#\	.
8F#/	.	8c#\L	.	8a/L	.	8ff#\L	.	8ff#\	.
8F#/J	.	8c#\J	.	8a/J	.	8ff#\J	.	8ff#\J	.
=9	=9	=9	=9	=9	=9	=9	=9	=9	=9
8BB/L	.	8d\L	.	8g#/L	.	8ff#\L	.	8ff#\L	.
8BB/	.	8d\	.	8g#/	.	8ff#\	.	8ff#\	.
8C#/	.	8c#\	.	8g#/	.	8ee#\	.	8ee#\	.
8C#/J	.	8c#\J	.	8g#/J	.	8ee#\J	.	8ee#\J	.
4FF#/	.	4c#\	.	4a/	.	4ff#\	.	4ff#\	.
8FF#/L	.	8c#\L	.	8f#/L	.	8a/L	.	8a/L	.
8FF#/J	.	8c#\J	.	8f#/J	.	8a/J	.	8a/J	.
=10	=10	=10	=10	=10	=10	=10	=10	=10	=10
8BB/L	.	8d\L	.	8f#/L	.	8g#/L	.	8g#/L	.
8BB/	.	8d\	.	8f#/	.	8g#/	.	8g#/	.
8C#/	.	8c#\	.	8e#/	.	8g#/	.	8g#/	.
8C#/J	.	8c#\J	.	8e#/J	.	8g#/J	.	8g#/J	.
2FF#;/	.	2c#;\	.	2f#;/	.	2a;/	.	2a/	.
==	==	==	==	==	==	==	==	==	==
*-	*-	*-	*-	*-	*-	*-	*-	*-	*-
!!!URL-pdf: https://ks15.imslp.org/files/imglnks/usimg/d/d3/IMSLP301346-PMLP487833-Vivaldi_-_VI_Concerti_a_Cinque_Stromenti,_Opera_Sesta_-Violino_Primo_Principale-.pdf#page=18 Violino Primo Principale
!!!URL-pdf: https://s9.imslp.org/files/imglnks/usimg/9/9d/IMSLP301347-PMLP487833-Vivaldi_-_VI_Concerti_a_Cinque_Stromenti,_Opera_Sesta_-Violino_Primo-.pdf#page=9 Violino Primo
!!!URL-pdf: https://s9.imslp.org/files/imglnks/usimg/3/36/IMSLP301348-PMLP487833-Vivaldi_-_VI_Concerti_a_Cinque_Stromenti,_Opera_Sesta_-Violino_Secondo-.pdf#page=10 Violino Secondo
!!!URL-pdf: https://s9.imslp.org/files/imglnks/usimg/3/36/IMSLP301348-PMLP487833-Vivaldi_-_VI_Concerti_a_Cinque_Stromenti,_Opera_Sesta_-Violino_Secondo-.pdf#page=9 Alto Viola
!!!URL-pdf: https://s9.imslp.org/files/imglnks/usimg/9/9d/IMSLP301350-PMLP487833-Vivaldi_-_VI_Concerti_a_Cinque_Stromenti,_Opera_Sesta_-Organo_e_Violoncello-.pdf#page=12 Organo e Violoncello
!!!ENC: Don Anthony
!!!END: 2005/06/10
!!!EED: Craig Stuart Sapp
!!!EEV: 2024/10/03
